X:13622
T:Prince Regent. JMT.093
M:6/8
L:1/8
S:J.Moore,Tyneside,1842.(66b)
R:Quadrille
O:England
A:Northumbria
Z:vmp.Chris Partington
K:D
A|d2d def|d2d def|gfg Bcd|ecA ABc|d2d def|!
d2d def|gbg ecA|d3d2:||:F/G/|A2dB2e|cAc cfa|!
B2d Bgd|"sic"cAcd F/G/|A2dB2e|cAc dfa|A2d Bge|"sic"edcB c2a2a2:|]
%too uncertain for me to sort out.But presumably cAc dFG.
